icons/svg/copy1.svg

<svg t="1573621565493" class="icon" viewBox="0 0 1024 1024" version="1.1" xmlns="http://www.w3.org/2000/svg" p-id="6084" width="200" height="200"><path d="M896 810.666667l-128 0c-23.466667 0-42.666667-19.2-42.666667-42.666667 0-23.466667 19.2-42.666667 42.666667-42.666667l106.666667 0c12.8 0 21.333333-8.533333 21.333333-21.333333L896 106.666667c0-12.8-8.533333-21.333333-21.333333-21.333333L448 85.333333c-12.8 0-21.333333 8.533333-21.333333 21.333333l0 21.333333c0 23.466667-19.2 42.666667-42.666667 42.666667-23.466667 0-42.666667-19.2-42.666667-42.666667L341.333333 85.333333c0-46.933333 38.4-85.333333 85.333333-85.333333l469.333333 0c46.933333 0 85.333333 38.4 85.333333 85.333333l0 640C981.333333 772.266667 942.933333 810.666667 896 810.666667zM682.666667 298.666667l0 640c0 46.933333-38.4 85.333333-85.333333 85.333333L128 1024c-46.933333 0-85.333333-38.4-85.333333-85.333333L42.666667 298.666667c0-46.933333 38.4-85.333333 85.333333-85.333333l469.333333 0C644.266667 213.333333 682.666667 251.733333 682.666667 298.666667zM576 298.666667 149.333333 298.666667c-12.8 0-21.333333 8.533333-21.333333 21.333333l0 597.333333c0 12.8 8.533333 21.333333 21.333333 21.333333l426.666667 0c12.8 0 21.333333-8.533333 21.333333-21.333333L597.333333 320C597.333333 307.2 588.8 298.666667 576 298.666667z" p-id="6085"></path></svg>

<svg class="icon" viewBox="0 0 1024 1024" xmlns="http://www.w3.org/2000/svg" width="200" height="200"><path d="M896 810.667H768c-23.467 0-42.667-19.2-42.667-42.667 0-23.467 19.2-42.667 42.667-42.667h106.667c12.8 0 21.333-8.533 21.333-21.333V106.667c0-12.8-8.533-21.334-21.333-21.334H448c-12.8 0-21.333 8.534-21.333 21.334V128c0 23.467-19.2 42.667-42.667 42.667-23.467 0-42.667-19.2-42.667-42.667V85.333C341.333 38.4 379.733 0 426.667 0H896c46.933 0 85.333 38.4 85.333 85.333v640c0 46.934-38.4 85.334-85.333 85.334zm-213.333-512v640c0 46.933-38.4 85.333-85.334 85.333H128c-46.933 0-85.333-38.4-85.333-85.333v-640c0-46.934 38.4-85.334 85.333-85.334h469.333c46.934 0 85.334 38.4 85.334 85.334zm-106.667 0H149.333C136.533 298.667 128 307.2 128 320v597.333c0 12.8 8.533 21.334 21.333 21.334H576c12.8 0 21.333-8.534 21.333-21.334V320c0-12.8-8.533-21.333-21.333-21.333z"/></svg>
